!!!!SEGMENT: pl-sa--l-1636--028_anonim--keyboard-piece.krn
!!!cenid: 17xx:735
!!!COM: Anonim
!!!COM-rismID: pe30004985
!!!CDT:
!!!CNT:
!!!OTL: [Keyboard piece]
!!!PDT:
!!!AGN: Secular
!!!SMS-siglum: PL-SA
!!!SMS-shelfmark: L 1636
!!!SMS-shelfwork: 028 W
!!!SMS-variant:
!!!SMS-altvar:
!!!NIFC-rismSourceID: 1001076501
!!!NIFC-islandoraID:
!!!URL-pdf-islandora:
!!!URL-scan:
!!!ONB-nifc: 8v, skan, 0012
!!!AIN: 1 empty
!!!key:
**kern	**kern
*part1	*part1
*staff2	*staff1
*Iempty	*Iempty
*I"[Keyboard]	*
*I'keyb	*
*clefF4	*clefG2
*k[b-]	*k[b-]
*F:	*F:
*M2/2	*M2/2
*met(c|)	*met(c|)
=1	=1
*^	*^
!	!	!LO:TX:i:a:t=Ex F.	!
*2\right	*2\right	*2\right	*2\right
1A	2.F\	2b-/	2a\
.	.	4b-/	[<4g\
.	4E\	8cc/L	4g\]
.	.	8b-/J	.
*v	*v	*	*
=2	=2	=2
4D/	4a/	4f\
4G\	4b-/	4d\
4C/	4b-/	4g 4e\
4AA/	4a/	4f\
=3	=3	=3
8BB-/L	2g/	4f\
8GG/	.	.
8C/	.	[<4e\
8BB-/J	.	.
8AA/L	2f/	4e\]
8FF/J	.	.
[<4BB-/	.	4d\
=4	=4	=4
4BB-/]	4g/	4e\
4AA/	4a/	[<4f\
4GG/	2b-/	8f\L]
.	.	16e\L
.	.	16d\JJ
4C/	.	4e\
=5	=5	=5
4FF/	4a/	4f\
2F\	4cc/	4a\
.	4dd/	4b-\
4E\	4ee/	[<4cc\
!!LO:LB:g=original
=6	=6	=6
4D/	4cc\]	2ff/
4G\	4bn\	.
8C/L	2cc\	2ee/
8D/	.	.
8E/	.	.
8C/J	.	.
=7	=7	=7
8G\L	2dd/	8a\L
8D\	.	8f\
8G\	.	8b-\
8F\J	.	8a\J
8E\L	2cc/	8g\L
8C\	.	8e\
8F\	.	8a\
8E\J	.	8g\J
=8	=8	=8
*^	*	*
4D/	2ryy	8b-/L	4.f\
.	.	16cc/L	.
.	.	16dd/JJ	.
4E\	.	8.cc/L	.
.	.	.	4g\
.	.	16b-/Jk	.
4F/	4C 4FF\	16a\LL	.
.	.	16cc\	.
.	.	16dd\	8ryy
.	.	16ee\JJ	.
4G 4C/	4AA\	16ff\LL	4ryy
.	.	16cc\	.
.	.	16dd\	.
.	.	16ee\JJ	.
*	*	*v	*v
=9	=9	=9
4F 4D/	4BB-X\	16dd\LL
.	.	16dd\
.	.	16ee\
.	.	16ff\JJ
4G 4D/	4BBn\	16gg\LL
.	.	16dd\
.	.	16ee\
.	.	16ff\JJ
4G 4E/	4C\	16ee\LL
.	.	16ee\
.	.	16ff\
.	.	16gg\JJ
4A 4E/	4C#X\	16aa\LL
.	.	16ee\
.	.	16ff\
.	.	16gg\JJ
!!LO:LB:g=original
=10	=10	=10
4D/	2ryy	8ff#X\L
.	.	16gg\L
.	.	16aa\JJ
!LO:N:vis=4.	!	!
4E\	.	8.aa\L
.	.	16gg\Jk
4A 4E/	4AA\	16aa\LL
.	.	16ee\
.	.	16ff#\
.	.	16gg\JJ
4A 4E/	4C#X\	16aa\LL
.	.	16gg\
.	.	16ff#\
.	.	16ee\JJ
=11	=11	=11
2d/	4c\	16ff\LL
.	.	16gg\
.	.	16ee\
.	.	16ff\JJ
.	[<4B-\	16dd\LL
.	.	16gg\
.	.	16ff\
.	.	16gg\JJ
2c/	4B-\]	16ee\LL
.	.	16ff\
.	.	16dd\
.	.	16ee\JJ
.	[<4A\	16cc\LL
.	.	16ee\
.	.	16dd\
.	.	16cc\JJ
=12	=12	=12
2B-/	4A\]	16dd\LL
.	.	16ee\
.	.	16cc\
.	.	16dd\JJ
.	4G\	16b-\LL
.	.	16dd\
.	.	16cc\
.	.	16b-\JJ
[>4A/	4E\	8cc\L
.	.	16dd\L
.	.	16ee\JJ
4A]	4F\	8ff\L
.	.	8dd\J
!!LO:LB:g=original
=13	=13	=13
4A/	2E\	16ee\LL
.	.	16b-\
.	.	16cc\
.	.	16dd\JJ
4G#X/	.	16ee\LL
.	.	16dd\
.	.	16cc\
.	.	16b-\JJ
2A/	4E\	16cc\LL
.	.	16ee\
.	.	16ff\
.	.	16gg\JJ
.	4C#X\	16aa\LL
.	.	16gg\
.	.	16ff\
.	.	16ee\JJ
*v	*v	*
=14	=14
*	*^
4D\	16ff\LL	4ryy
.	16ff\	.
.	16gg\	.
.	16aa\JJ	.
4BB-X/	16bb-\LL	4bb-/
.	16dd\	.
.	16gg\	.
.	16ff\JJ	.
16C/LL	4ee\	4gg/
16C/	.	.
16D/	.	.
16E/JJ	.	.
16F\LL	4ff\	4aa/
16C\	.	.
16D\	.	.
16BB-\JJ	.	.
=15	=15	=15
*^	*	*
2C/	2CC/	8ff\L	4ryy
.	.	16ee\L	.
.	.	16dd\JJ	.
.	.	8.cc\L	4ff/
.	.	16b-\Jk	.
2F/	2C 2AA 2FF\	2ff 2cc 2a\	2ryy
*v	*v	*	*
*	*v	*v
!LO:TX:a:t=P:||:problem=w źródle końcowa kreska taktowa 	!LO:TX:a:t=P:||:problem=w źródle końcowa kreska taktowa 
==;;	==;;
*-	*-
!!!system-decoration: s1,s2
!!!RDF**kern: > = above
!!!RDF**kern: < = below
!!!EED: Antoni Szymański
!!!EEV: 2020-12-07
!!!ENC: Tomasz Grochalski
!!!END: 2020-06-11
